web/themes/custom/surf_main/images/icons/ui-icon-question.svg

<svg fill="none" height="28" viewBox="0 0 28 28" width="28" xmlns="http://www.w3.org/2000/svg"><g stroke="#222" stroke-width="1.5"><path d="m9 8.91226c0-2.71297 2.1993-4.91226 4.9123-4.91226 2.7129 0 4.9122 2.19929 4.9122 4.91226 0 1.48214-.6564 2.81104-1.6944 3.71164-1.4637 1.27-3.2178 2.7715-3.2178 4.7094"/><path d="m15.5 21.3848c0 .8284-.6716 1.5-1.5 1.5s-1.5-.6716-1.5-1.5c0-.8285.6716-1.5 1.5-1.5s1.5.6715 1.5 1.5z"/></g></svg>

<svg width="28" height="28" viewBox="0 0 28 28" fill="none" xmlns="http://www.w3.org/2000/svg">
<path d="M9 8.91226C9 6.19929 11.1993 4 13.9123 4C16.6252 4 18.8245 6.19929 18.8245 8.91226C18.8245 10.3944 18.1681 11.7233 17.1301 12.6239C15.6664 13.8939 13.9123 15.3954 13.9123 17.3333V17.3333" stroke="#222222" stroke-width="1.5"/>
<path d="M15.5 21.3848C15.5 22.2132 14.8284 22.8848 14 22.8848C13.1716 22.8848 12.5 22.2132 12.5 21.3848C12.5 20.5563 13.1716 19.8848 14 19.8848C14.8284 19.8848 15.5 20.5563 15.5 21.3848Z" stroke="#222222" stroke-width="1.5"/>
</svg>
